docs/assets/icons/raspberry-pi.svg

<?xml version="1.0" encoding="UTF-8"?>
<svg version="1.1" viewBox="0 0 24 18" xmlns="http://www.w3.org/2000/svg"><g transform="matrix(1.1652 0 0 1.1652 -1.9823 -5.5149)"><g fill="#4cae4f"><path d="m20 8h2v2h-2v-2m0 6h2v2h-2z" stroke="#0091eb" stroke-linecap="round" stroke-linejoin="round" stroke-width=".34329"/><path d="m16 18.962v1.1241h-2v-1.1241h-3v1.1241h-4v-1.1241"/></g><path d="m19 15h-10v-5h10v1h3v2h-3v2m-6-3v2h2v-2h-2" fill="#4cae4f" stroke="#0091eb" stroke-linecap="round" stroke-linejoin="round" stroke-width=".34329"/><path d="m4 5c-1.1046 0-2 .89543-2 2v10c0 1.1046.89543 2 2 2h16c1.1046 0 2-.89543 2-2h-3v-1h-11v-3h-3v-4h14v-2h3c0-1.1046-.89543-2-2-2zm1 1h1v2h-1zm2 0h1v2h-1zm2 0h1v2h-1zm2 0h1v2h-1zm2 0h1v2h-1zm2 0h1v2h-1z" fill="#0091eb" stroke="#4cae4f" stroke-width=".34329"/></g></svg>

<?xml version="1.0" encoding="UTF-8" standalone="no"?>
<svg
   id="mdi-raspberry-pi"
   viewBox="0 0 24 18"
   version="1.1"
   sodipodi:docname="raspberry-pi.svg"
   inkscape:version="1.4.3 (0d15f75042, 2025-12-25)"
   width="24"
   height="18"
   xmlns:inkscape="http://www.inkscape.org/namespaces/inkscape"
   xmlns:sodipodi="http://sodipodi.sourceforge.net/DTD/sodipodi-0.dtd"
   xmlns="http://www.w3.org/2000/svg"
   xmlns:svg="http://www.w3.org/2000/svg">
  <defs
     id="defs1" />
  <sodipodi:namedview
     id="namedview1"
     pagecolor="#505050"
     bordercolor="#ffffff"
     borderopacity="1"
     inkscape:showpageshadow="0"
     inkscape:pageopacity="0"
     inkscape:pagecheckerboard="1"
     inkscape:deskcolor="#505050"
     inkscape:zoom="34.176828"
     inkscape:cx="8.6315793"
     inkscape:cy="14.366459"
     inkscape:window-width="2560"
     inkscape:window-height="1368"
     inkscape:window-x="0"
     inkscape:window-y="0"
     inkscape:window-maximized="1"
     inkscape:current-layer="mdi-raspberry-pi" />
  <g
     id="g9"
     inkscape:label="raspberry-pi"
     transform="matrix(1.1882367,0,0,1.1882367,-2.2588404,-5.8529588)">
    <g
       id="g8"
       inkscape:label="ports">
      <path
         d="m 20,8 h 2 v 2 H 20 V 8 m 0,6 h 2 v 2 h -2 z"
         id="path7"
         style="display:inline;fill:#4cae4f;fill-opacity:1"
         sodipodi:nodetypes="cccccccccc" />
      <path
         d="M 16,18.875862 V 20 H 14 V 18.875862 H 11 V 20 H 7 v -1.124138"
         id="path5"
         sodipodi:nodetypes="cccccccc"
         inkscape:label="path5"
         style="fill:#4cae4f;fill-opacity:1;stroke-width:1.06025" />
    </g>
    <path
       d="M 19,15 H 9 v -5 h 10 v 1 h 3 v 2 h -3 v 2 m -6,-3 v 2 h 2 v -2 h -2"
       id="path1"
       sodipodi:nodetypes="cccccccccccccc"
       style="fill:#4cae4f;fill-opacity:1"
       inkscape:label="soc" />
    <path
       id="path4"
       style="display:inline;fill:#0091eb;fill-opacity:1"
       d="M 4,5 C 2.8954305,5 2,5.8954305 2,7 v 10 c 0,1.104569 0.8954305,2 2,2 h 3 4 3 2 4 c 1.104569,0 2,-0.895431 2,-2 H 19 V 16 H 8 V 13 H 5 V 9 H 19 V 7 h 3 C 22,5.8954305 21.104569,5 20,5 Z M 5,6 H 6 V 8 H 5 Z M 7,6 H 8 V 8 H 7 Z m 2,0 h 1 V 8 H 9 Z m 2,0 h 1 v 2 h -1 z m 2,0 h 1 v 2 h -1 z m 2,0 h 1 v 2 h -1 z"
       inkscape:label="case" />
  </g>
</svg>
